; generated by Slic3r Prusa Edition 1.40.1+ on 2019-05-19 at 15:19:44

; 

; external perimeters extrusion width = 0.45mm
; perimeters extrusion width = 0.45mm
; infill extrusion width = 0.45mm
; solid infill extrusion width = 0.45mm
; top infill extrusion width = 0.40mm
; first layer extrusion width = 0.42mm

M107
M115 U3.7.1 ; tell printer latest fw version
M201 X1000 Y1000 Z1000 E9000 ; sets maximum accelerations, mm/sec^2
M203 X200 Y200 Z12 E120 ; sets maximum feedrates, mm/sec
M204 S1250 T1250 ; sets acceleration (S) and retract acceleration (T)
M205 X8 Y8 Z0.4 E1.5 ; sets the jerk limits, mm/sec
M205 S0 T0 ; sets the minimum extruding and travel feed rate, mm/sec
M83  ; extruder relative mode
M104 S215 ; set extruder temp
M140 S60 ; set bed temp
M190 S60 ; wait for bed temp
M109 S215 ; wait for extruder temp
G28 W ; home all without mesh bed level
G80 ; mesh bed leveling
G1 Y-3.0 F1000.0 ; go outside print area
G92 E0.0
G1 X60.0 E9.0  F1000.0 ; intro line
G1 X100.0 E12.5  F1000.0 ; intro line
G92 E0.0
M221 S95
M900 K30; Filament gcode
G21 ; set units to millimeters
G90 ; use absolute coordinates
M83 ; use relative distances for extrusion
;BEFORE_LAYER_CHANGE
G92 E0.0
;0.2


G1 E-0.80000 F2100.00000
G1 Z0.600 F10800.000
;AFTER_LAYER_CHANGE
;0.2
G1 X101.408 Y133.100
G1 Z0.200
G1 E0.80000 F2100.00000
M204 S1000
G1 F1800
G1 X109.324 Y110.252 E0.75815
G1 X109.943 Y109.019 E0.04328
G1 X110.465 Y108.364 E0.02626
G1 X111.106 Y107.777 E0.02724
G1 X111.900 Y107.265 E0.02962
G1 X112.796 Y106.891 E0.03045
G1 X125.898 Y103.841 E0.42180
G1 X134.360 Y103.793 E0.26531
G1 X135.210 Y103.966 E0.02721
G1 X136.608 Y104.745 E0.05018
G1 X143.173 Y108.758 E0.24124
G1 X143.599 Y109.106 E0.01726
G1 X161.254 Y132.030 E0.90722
G1 X161.471 Y132.544 E0.01749
G1 X161.550 Y133.092 E0.01737
G1 X161.550 Y148.822 E0.49320
G1 X161.455 Y149.452 E0.01998
G1 X161.183 Y150.029 E0.01998
G1 X160.860 Y150.410 E0.01567
G1 X160.460 Y150.708 E0.01567
G1 X160.005 Y150.907 E0.01555
G1 X159.514 Y150.998 E0.01567
G1 X142.120 Y151.361 E0.54550
G1 X104.063 Y151.361 E1.19323
G1 X103.441 Y151.265 E0.01976
G1 X102.868 Y150.994 E0.01987
G1 X102.411 Y150.587 E0.01919
G1 X101.714 Y149.629 E0.03713
G1 X101.490 Y149.155 E0.01646
G1 X101.385 Y148.640 E0.01646
G1 X101.408 Y133.160 E0.48536
G1 F8640
G1 X102.483 Y130.049 E-0.76000
G1 E-0.04000 F2100.00000
G1 Z0.800 F10800.000
G1 X146.557 Y139.807
G1 Z0.200
G1 E0.80000 F2100.00000
G1 F1800
G1 X146.695 Y139.258 E0.01776
G1 X146.842 Y138.842 E0.01383
G1 X147.021 Y138.435 E0.01394
G1 X147.382 Y137.803 E0.02282
G1 X147.714 Y137.344 E0.01777
G1 X148.003 Y137.011 E0.01381
G1 X148.319 Y136.699 E0.01393
G1 X148.887 Y136.243 E0.02283
G1 X149.365 Y135.939 E0.01778
G1 X149.763 Y135.732 E0.01405
G1 X150.441 Y135.465 E0.02284
G1 X150.988 Y135.317 E0.01779
G1 X151.429 Y135.238 E0.01403
G1 X152.152 Y135.183 E0.02275
G1 X152.599 Y135.195 E0.01402
G1 X153.163 Y135.259 E0.01780
G1 X153.874 Y135.422 E0.02285
G1 X154.297 Y135.566 E0.01404
G1 X154.816 Y135.796 E0.01779
G1 X155.446 Y136.161 E0.02284
G1 X155.809 Y136.425 E0.01406
G1 X156.236 Y136.798 E0.01778
G1 X156.729 Y137.334 E0.02283
G1 X156.997 Y137.694 E0.01408
G1 X157.294 Y138.177 E0.01777
G1 X157.606 Y138.834 E0.02281
G1 X157.756 Y139.258 E0.01410
G1 X157.894 Y139.807 E0.01776
G1 X157.998 Y140.527 E0.02280
G1 X158.015 Y140.972 E0.01395
G1 X157.998 Y141.417 E0.01395
G1 X157.894 Y142.137 E0.02280
G1 X157.756 Y142.686 E0.01776
G1 X157.609 Y143.102 E0.01383
G1 X157.430 Y143.509 E0.01394
G1 X157.069 Y144.141 E0.02282
G1 X156.737 Y144.600 E0.01777
G1 X156.448 Y144.933 E0.01381
G1 X156.132 Y145.245 E0.01393
G1 X155.564 Y145.701 E0.02283
G1 X155.086 Y146.005 E0.01778
G1 X154.688 Y146.212 E0.01405
G1 X154.010 Y146.479 E0.02284
G1 X153.462 Y146.627 E0.01779
G1 X153.022 Y146.706 E0.01403
G1 X152.298 Y146.761 E0.02275
G1 X151.852 Y146.749 E0.01402
G1 X151.287 Y146.685 E0.01780
G1 X150.577 Y146.522 E0.02285
G1 X150.153 Y146.378 E0.01404
G1 X149.634 Y146.148 E0.01779
G1 X149.004 Y145.783 E0.02284
G1 X148.642 Y145.519 E0.01406
G1 X148.215 Y145.146 E0.01778
G1 X147.722 Y144.610 E0.02283
G1 X147.453 Y144.250 E0.01408
G1 X147.157 Y143.767 E0.01777
G1 X146.845 Y143.110 E0.02281
G1 X146.695 Y142.686 E0.01410
G1 X146.557 Y142.137 E0.01776
G1 X146.452 Y141.417 E0.02280
G1 X146.436 Y140.972 E0.01395
G1 X146.452 Y140.527 E0.01395
G1 X146.548 Y139.867 E0.02092
G1 X146.921 Y139.921 F10800.000
G1 F1800
G1 X147.056 Y139.367 E0.01787
G1 X147.193 Y138.981 E0.01284
G1 X147.358 Y138.605 E0.01288
G1 X147.699 Y138.008 E0.02157
G1 X148.009 Y137.578 E0.01661
G1 X148.278 Y137.270 E0.01283
G1 X148.570 Y136.981 E0.01287
G1 X149.107 Y136.550 E0.02157
G1 X149.553 Y136.266 E0.01661
G1 X149.919 Y136.076 E0.01292
G1 X150.559 Y135.823 E0.02158
G1 X151.071 Y135.685 E0.01662
G1 X151.476 Y135.612 E0.01291
G1 X152.161 Y135.561 E0.02154
G1 X152.573 Y135.572 E0.01291
G1 X153.100 Y135.632 E0.01662
G1 X153.770 Y135.785 E0.02158
G1 X154.160 Y135.918 E0.01291
G1 X154.645 Y136.132 E0.01662
G1 X155.240 Y136.477 E0.02158
G1 X155.574 Y136.720 E0.01292
G1 X155.972 Y137.069 E0.01661
G1 X156.439 Y137.575 E0.02157
G1 X156.685 Y137.905 E0.01293
G1 X156.962 Y138.357 E0.01661
G1 X157.257 Y138.978 E0.02157
G1 X157.394 Y139.367 E0.01293
G1 X157.524 Y139.881 E0.01660
G1 X157.622 Y140.561 E0.02156
G1 X157.638 Y140.972 E0.01288
G1 X157.622 Y141.383 E0.01288
G1 X157.524 Y142.063 E0.02156
G1 X157.394 Y142.577 E0.01660
G1 X157.258 Y142.963 E0.01284
G1 X157.093 Y143.339 E0.01288
G1 X156.751 Y143.936 E0.02157
G1 X156.441 Y144.366 E0.01661
G1 X156.173 Y144.674 E0.01283
G1 X155.881 Y144.963 E0.01288
G1 X155.344 Y145.394 E0.02158
G1 X154.897 Y145.678 E0.01661
G1 X154.532 Y145.868 E0.01292
G1 X153.891 Y146.121 E0.02158
G1 X153.380 Y146.259 E0.01662
G1 X152.974 Y146.332 E0.01291
G1 X152.289 Y146.383 E0.02154
G1 X151.878 Y146.372 E0.01290
G1 X151.351 Y146.312 E0.01662
G1 X150.680 Y146.159 E0.02158
G1 X150.290 Y146.026 E0.01291
G1 X149.806 Y145.812 E0.01662
G1 X149.210 Y145.467 E0.02158
G1 X148.877 Y145.224 E0.01292
G1 X148.478 Y144.875 E0.01661
G1 X148.012 Y144.369 E0.02157
G1 X147.766 Y144.039 E0.01293
G1 X147.489 Y143.587 E0.01661
G1 X147.194 Y142.966 E0.02157
G1 X147.056 Y142.577 E0.01293
G1 X146.927 Y142.063 E0.01660
G1 X146.829 Y141.383 E0.02156
G1 X146.813 Y140.972 E0.01288
G1 X146.829 Y140.561 E0.01288
G1 X146.913 Y139.980 E0.01841
G1 X146.620 Y139.658 F10800.000
G1 F8640
G1 X147.056 Y139.367 E-0.14537
G1 X147.193 Y138.981 E-0.09453
G1 X147.358 Y138.605 E-0.09484
G1 X147.699 Y138.008 E-0.15885
G1 X148.009 Y137.578 E-0.12232
G1 X148.278 Y137.270 E-0.09450
G1 X148.431 Y137.119 E-0.04959
G1 E-0.04000 F2100.00000
G1 Z0.800 F10800.000
G1 X142.176 Y134.041
G1 Z0.200
G1 E0.80000 F2100.00000
G1 F1800
G1 X158.775 Y134.041 E0.52044
G1 X158.775 Y147.903 E0.43462
G1 X142.176 Y147.903 E0.52044
G1 X142.176 Y148.365 E0.01450
G1 X142.047 Y148.407 E0.00427
G1 X120.708 Y148.407 E0.66906
G1 X120.708 Y137.450 E0.34357
G1 X119.096 Y136.926 E0.05315
G1 X108.704 Y136.926 E0.32584
G1 X107.725 Y138.273 E0.05222
G1 X107.725 Y148.407 E0.31775
G1 X104.439 Y148.407 E0.10303
G1 X104.341 Y148.273 E0.00520
G1 X104.341 Y133.655 E0.45835
G1 X104.439 Y133.521 E0.00520
G1 X142.047 Y133.521 E1.17917
G1 X142.176 Y133.563 E0.00427
G1 X142.176 Y133.981 E0.01312
G1 X142.553 Y133.664 F10800.000
G1 F1800
G1 X159.152 Y133.664 E0.52044
G1 X159.152 Y148.280 E0.45827
G1 X142.553 Y148.280 E0.52044
G1 X142.553 Y148.639 E0.01127
G1 X142.106 Y148.784 E0.01473
G1 X120.331 Y148.784 E0.68275
G1 X120.331 Y137.724 E0.34680
G1 X119.036 Y137.303 E0.04269
G1 X108.896 Y137.303 E0.31794
G1 X108.102 Y138.396 E0.04235
G1 X108.102 Y148.784 E0.32573
G1 X104.247 Y148.784 E0.12088
G1 X103.964 Y148.396 E0.01506
G1 X103.964 Y133.532 E0.46604
G1 X104.247 Y133.144 E0.01506
G1 X142.106 Y133.144 E1.18707
G1 X142.553 Y133.289 E0.01473
G1 X142.553 Y133.604 E0.00989
G1 X142.647 Y134.053 F10800.000
G1 F8640
G1 X145.844 Y133.616 E-0.76000
G1 E-0.04000 F2100.00000
G1 Z0.800 F10800.000
G1 X155.599 Y136.132
G1 Z0.200
G1 E0.80000 F2100.00000
G1 F1800
G1 X153.791 Y134.324 E0.08037
G1 X153.256 Y134.324 E0.01680
G1 X154.149 Y135.217 E0.03970
G1 X153.951 Y135.150 E0.00659
G1 X153.427 Y135.030 E0.01688
G1 X152.722 Y134.324 E0.03137
G1 X152.187 Y134.324 E0.01680
G1 X152.796 Y134.933 E0.02706
G1 X152.231 Y134.903 E0.01778
G1 X151.653 Y134.324 E0.02571
G1 X151.118 Y134.324 E0.01680
G1 X151.726 Y134.932 E0.02702
G1 X151.243 Y134.984 E0.01526
G1 X150.583 Y134.324 E0.02932
G1 X150.049 Y134.324 E0.01680
G1 X150.800 Y135.075 E0.03337
G1 X150.379 Y135.189 E0.01369
G1 X149.514 Y134.324 E0.03844
G1 X148.980 Y134.324 E0.01680
G1 X149.993 Y135.337 E0.04505
G1 X149.613 Y135.492 E0.01290
G1 X148.445 Y134.324 E0.05190
G1 X147.911 Y134.324 E0.01680
G1 X149.261 Y135.674 E0.06001
G1 X148.932 Y135.879 E0.01219
G1 X147.376 Y134.324 E0.06914
G1 X146.842 Y134.324 E0.01680
G1 X148.616 Y136.098 E0.07886
G1 X148.319 Y136.336 E0.01195
G1 X146.307 Y134.324 E0.08943
G1 X145.772 Y134.324 E0.01680
G1 X148.033 Y136.584 E0.10046
G1 X147.766 Y136.852 E0.01188
G1 X145.238 Y134.324 E0.11238
G1 X144.703 Y134.324 E0.01680
G1 X147.518 Y137.138 E0.12509
G1 X147.291 Y137.446 E0.01202
G1 X144.169 Y134.324 E0.13877
G1 X143.634 Y134.324 E0.01680
G1 X147.077 Y137.767 E0.15303
G1 X146.883 Y138.107 E0.01231
G1 X143.100 Y134.324 E0.16815
G1 X142.565 Y134.324 E0.01680
G1 X146.701 Y138.460 E0.18383
G1 X146.544 Y138.837 E0.01285
G1 X141.510 Y133.803 E0.22374
G1 X140.976 Y133.803 E0.01680
G1 X146.409 Y139.237 E0.24150
G1 X146.301 Y139.664 E0.01384
G1 X140.441 Y133.803 E0.26047
G1 X139.906 Y133.803 E0.01680
G1 X146.225 Y140.122 E0.28086
G1 X146.167 Y140.598 E0.01508
G1 X139.372 Y133.803 E0.30202
G1 X138.837 Y133.803 E0.01680
G1 X146.158 Y141.125 E0.32541
G1 X146.170 Y141.442 E0.00999
G1 X146.209 Y141.710 E0.00849
G1 X138.303 Y133.803 E0.35142
G1 X137.768 Y133.803 E0.01680
G1 X146.320 Y142.355 E0.38011
G1 X146.424 Y142.768 E0.01337
G1 X146.547 Y143.117 E0.01165
G1 X137.234 Y133.803 E0.41397
G1 X136.699 Y133.803 E0.01680
G1 X150.516 Y147.620 E0.61412
G1 X149.981 Y147.620 E0.01680
G1 X136.165 Y133.803 E0.61412
G1 X135.630 Y133.803 E0.01680
G1 X149.447 Y147.620 E0.61412
G1 X148.912 Y147.620 E0.01680
G1 X135.095 Y133.803 E0.61412
G1 X134.561 Y133.803 E0.01680
G1 X148.377 Y147.620 E0.61412
G1 X147.843 Y147.620 E0.01680
G1 X134.026 Y133.803 E0.61412
G1 X133.492 Y133.803 E0.01680
G1 X147.308 Y147.620 E0.61412
G1 X146.774 Y147.620 E0.01680
G1 X132.957 Y133.803 E0.61412
G1 X132.423 Y133.803 E0.01680
G1 X146.239 Y147.620 E0.61412
G1 X145.705 Y147.620 E0.01680
G1 X131.888 Y133.803 E0.61412
G1 X131.354 Y133.803 E0.01680
G1 X145.170 Y147.620 E0.61412
G1 X144.636 Y147.620 E0.01680
G1 X130.819 Y133.803 E0.61412
G1 X130.284 Y133.803 E0.01680
G1 X144.101 Y147.620 E0.61412
G1 X143.567 Y147.620 E0.01680
G1 X129.750 Y133.803 E0.61412
G1 X129.215 Y133.803 E0.01680
G1 X143.032 Y147.620 E0.61412
G1 X142.497 Y147.620 E0.01680
G1 X128.681 Y133.803 E0.61412
G1 X128.146 Y133.803 E0.01680
G1 X141.963 Y147.620 E0.61412
G1 X141.893 Y147.620 E0.00219
G1 X141.893 Y148.085 E0.01461
G1 X127.612 Y133.803 E0.63479
G1 X127.077 Y133.803 E0.01680
G1 X141.398 Y148.125 E0.63655
G1 X140.864 Y148.125 E0.01680
G1 X126.543 Y133.803 E0.63655
G1 X126.008 Y133.803 E0.01680
G1 X140.329 Y148.125 E0.63655
G1 X139.795 Y148.125 E0.01680
G1 X125.474 Y133.803 E0.63655
G1 X124.939 Y133.803 E0.01680
G1 X139.260 Y148.125 E0.63655
G1 X138.726 Y148.125 E0.01680
G1 X124.404 Y133.803 E0.63655
G1 X123.870 Y133.803 E0.01680
G1 X138.191 Y148.125 E0.63655
G1 X137.656 Y148.125 E0.01680
G1 X123.335 Y133.803 E0.63655
G1 X122.801 Y133.803 E0.01680
G1 X137.122 Y148.125 E0.63655
G1 X136.587 Y148.125 E0.01680
G1 X122.266 Y133.803 E0.63655
G1 X121.732 Y133.803 E0.01680
G1 X136.053 Y148.125 E0.63655
G1 X135.518 Y148.125 E0.01680
G1 X121.197 Y133.803 E0.63655
G1 X120.663 Y133.803 E0.01680
G1 X134.984 Y148.125 E0.63655
G1 X134.449 Y148.125 E0.01680
G1 X120.128 Y133.803 E0.63655
G1 X119.593 Y133.803 E0.01680
G1 X133.915 Y148.125 E0.63655
G1 X133.380 Y148.125 E0.01680
G1 X119.059 Y133.803 E0.63655
G1 X118.524 Y133.803 E0.01680
G1 X132.845 Y148.125 E0.63655
G1 X132.311 Y148.125 E0.01680
G1 X117.990 Y133.803 E0.63655
G1 X117.455 Y133.803 E0.01680
G1 X131.776 Y148.125 E0.63655
G1 X131.242 Y148.125 E0.01680
G1 X120.991 Y137.873 E0.45564
G1 X120.991 Y138.408 E0.01680
G1 X130.707 Y148.125 E0.43188
G1 X130.173 Y148.125 E0.01680
G1 X120.991 Y138.943 E0.40812
G1 X120.991 Y139.477 E0.01680
G1 X129.638 Y148.125 E0.38436
G1 X129.104 Y148.125 E0.01680
G1 X120.991 Y140.012 E0.36060
G1 X120.991 Y140.546 E0.01680
G1 X128.569 Y148.125 E0.33684
G1 X128.035 Y148.125 E0.01680
G1 X120.991 Y141.081 E0.31308
G1 X120.991 Y141.615 E0.01680
G1 X127.500 Y148.125 E0.28932
G1 X126.965 Y148.125 E0.01680
G1 X120.991 Y142.150 E0.26556
G1 X120.991 Y142.684 E0.01680
G1 X126.431 Y148.125 E0.24180
G1 X125.896 Y148.125 E0.01680
G1 X120.991 Y143.219 E0.21804
G1 X120.991 Y143.754 E0.01680
G1 X125.362 Y148.125 E0.19428
G1 X124.827 Y148.125 E0.01680
G1 X120.991 Y144.288 E0.17052
G1 X120.991 Y144.823 E0.01680
G1 X124.293 Y148.125 E0.14676
G1 X123.758 Y148.125 E0.01680
G1 X120.991 Y145.357 E0.12300
G1 X120.991 Y145.892 E0.01680
G1 X123.224 Y148.125 E0.09924
G1 X122.689 Y148.125 E0.01680
G1 X120.991 Y146.426 E0.07548
G1 X120.991 Y146.961 E0.01680
G1 X122.154 Y148.125 E0.05172
G1 X121.620 Y148.125 E0.01680
G1 X120.991 Y147.495 E0.02796
G1 X120.991 Y148.030 E0.01680
G1 X121.255 Y148.294 E0.01175
G1 F8640
G1 X120.991 Y148.030 E-0.08630
G1 X120.991 Y147.495 E-0.12343
G1 X121.620 Y148.125 E-0.20544
G1 X122.154 Y148.125 E-0.12343
G1 X121.476 Y147.447 E-0.22140
G1 E-0.04000 F2100.00000
G1 Z0.800 F10800.000
G1 X120.323 Y137.206
G1 Z0.200
G1 E0.80000 F2100.00000
G1 F1800
G1 X116.921 Y133.803 E0.15122
G1 X116.386 Y133.803 E0.01680
G1 X119.267 Y136.684 E0.12804
G1 X119.141 Y136.643 E0.00417
G1 X118.691 Y136.643 E0.01412
G1 X115.852 Y133.803 E0.12622
G1 X115.317 Y133.803 E0.01680
G1 X118.157 Y136.643 E0.12622
G1 X117.622 Y136.643 E0.01680
G1 X114.782 Y133.803 E0.12622
G1 X114.248 Y133.803 E0.01680
G1 X117.088 Y136.643 E0.12622
G1 X116.553 Y136.643 E0.01680
G1 X113.713 Y133.803 E0.12622
G1 X113.179 Y133.803 E0.01680
G1 X116.018 Y136.643 E0.12622
G1 X115.484 Y136.643 E0.01680
G1 X112.644 Y133.803 E0.12622
G1 X112.110 Y133.803 E0.01680
G1 X114.949 Y136.643 E0.12622
G1 X114.415 Y136.643 E0.01680
G1 X111.575 Y133.803 E0.12622
G1 X111.041 Y133.803 E0.01680
G1 X113.880 Y136.643 E0.12622
G1 X113.346 Y136.643 E0.01680
G1 X110.506 Y133.803 E0.12622
G1 X109.972 Y133.803 E0.01680
G1 X112.811 Y136.643 E0.12622
G1 X112.277 Y136.643 E0.01680
G1 X109.437 Y133.803 E0.12622
G1 X108.902 Y133.803 E0.01680
G1 X111.742 Y136.643 E0.12622
G1 X111.208 Y136.643 E0.01680
G1 X108.368 Y133.803 E0.12622
G1 X107.833 Y133.803 E0.01680
G1 X110.673 Y136.643 E0.12622
G1 X110.138 Y136.643 E0.01680
G1 X107.299 Y133.803 E0.12622
G1 X106.764 Y133.803 E0.01680
G1 X109.604 Y136.643 E0.12622
G1 X109.069 Y136.643 E0.01680
G1 X106.230 Y133.803 E0.12622
G1 X105.695 Y133.803 E0.01680
G1 X108.549 Y136.657 E0.12686
G1 X108.324 Y136.967 E0.01203
G1 X105.161 Y133.803 E0.14062
G1 X104.626 Y133.803 E0.01680
G1 X108.099 Y137.277 E0.15438
G1 X107.874 Y137.586 E0.01203
G1 X104.624 Y134.336 E0.14447
G1 X104.624 Y134.871 E0.01680
G1 X107.649 Y137.896 E0.13447
G1 X107.442 Y138.181 E0.01109
G1 X107.442 Y138.223 E0.00131
G1 X104.624 Y135.405 E0.12526
G1 X104.624 Y135.940 E0.01680
G1 X107.442 Y138.758 E0.12526
G1 X107.442 Y139.292 E0.01680
G1 X104.624 Y136.474 E0.12526
G1 X104.624 Y137.009 E0.01680
G1 X107.442 Y139.827 E0.12526
G1 X107.442 Y140.361 E0.01680
G1 X104.624 Y137.543 E0.12526
G1 X104.624 Y138.078 E0.01680
G1 X107.442 Y140.896 E0.12526
G1 X107.442 Y141.430 E0.01680
G1 X104.624 Y138.612 E0.12526
G1 X104.624 Y139.147 E0.01680
G1 X107.442 Y141.965 E0.12526
G1 X107.442 Y142.499 E0.01680
G1 X104.624 Y139.681 E0.12526
G1 X104.624 Y140.216 E0.01680
G1 X107.442 Y143.034 E0.12526
G1 X107.442 Y143.569 E0.01680
G1 X104.624 Y140.751 E0.12526
G1 X104.624 Y141.285 E0.01680
G1 X107.442 Y144.103 E0.12526
G1 X107.442 Y144.638 E0.01680
G1 X104.624 Y141.820 E0.12526
