; generated by Slic3r Prusa Edition 1.40.1+ on 2019-05-19 at 12:37:29

; 

; external perimeters extrusion width = 0.45mm
; perimeters extrusion width = 0.45mm
; infill extrusion width = 0.45mm
; solid infill extrusion width = 0.45mm
; top infill extrusion width = 0.40mm
; first layer extrusion width = 0.42mm

M107
M115 U3.7.1 ; tell printer latest fw version
M201 X1000 Y1000 Z1000 E9000 ; sets maximum accelerations, mm/sec^2
M203 X200 Y200 Z12 E120 ; sets maximum feedrates, mm/sec
M204 S1250 T1250 ; sets acceleration (S) and retract acceleration (T)
M205 X8 Y8 Z0.4 E1.5 ; sets the jerk limits, mm/sec
M205 S0 T0 ; sets the minimum extruding and travel feed rate, mm/sec
M83  ; extruder relative mode
M104 S215 ; set extruder temp
M140 S60 ; set bed temp
M190 S60 ; wait for bed temp
M109 S215 ; wait for extruder temp
G28 W ; home all without mesh bed level
G80 ; mesh bed leveling
G1 Y-3.0 F1000.0 ; go outside print area
G92 E0.0
G1 X60.0 E9.0  F1000.0 ; intro line
G1 X100.0 E12.5  F1000.0 ; intro line
G92 E0.0
M221 S95
M900 K30; Filament gcode
G21 ; set units to millimeters
G90 ; use absolute coordinates
M83 ; use relative distances for extrusion
;BEFORE_LAYER_CHANGE
G92 E0.0
;0.2


G1 E-0.80000 F2100.00000
G1 Z0.600 F10800.000
;AFTER_LAYER_CHANGE
;0.2
G1 X101.582 Y94.929
G1 Z0.200
G1 E0.80000 F2100.00000
M204 S1000
G1 F1800
G1 X102.127 Y94.684 E0.01873
G1 X102.718 Y94.595 E0.01873
G1 X130.748 Y94.595 E0.87888
G1 X148.149 Y94.972 E0.54572
G1 X148.946 Y95.172 E0.02574
G1 X149.615 Y95.653 E0.02586
G1 X150.043 Y96.311 E0.02462
G1 X150.212 Y97.082 E0.02473
G1 X150.214 Y112.854 E0.49452
G1 X150.033 Y113.714 E0.02754
G1 X149.529 Y114.433 E0.02754
G1 X148.888 Y114.854 E0.02405
G1 X148.137 Y115.029 E0.02417
G1 X130.790 Y115.389 E0.54401
G1 X102.712 Y115.389 E0.88037
G1 X102.041 Y115.273 E0.02134
G1 X101.441 Y114.959 E0.02123
G1 X101.051 Y114.587 E0.01692
G1 X100.375 Y113.654 E0.03610
G1 X100.132 Y113.116 E0.01851
G1 X100.042 Y112.537 E0.01839
G1 X100.045 Y97.353 E0.47607
G1 X100.148 Y96.816 E0.01714
G1 X100.381 Y96.321 E0.01714
G1 X101.088 Y95.354 E0.03758
G1 X101.537 Y94.968 E0.01855
G1 F8640
G1 X102.127 Y94.684 E-0.15131
G1 X102.718 Y94.595 E-0.13797
G1 X104.756 Y94.595 E-0.47072
G1 E-0.04000 F2100.00000
G1 Z0.800 F10800.000
G1 X135.220 Y103.835
G1 Z0.200
G1 E0.80000 F2100.00000
G1 F1800
G1 X135.358 Y103.286 E0.01776
G1 X135.505 Y102.870 E0.01383
G1 X135.684 Y102.463 E0.01394
G1 X136.045 Y101.831 E0.02282
G1 X136.377 Y101.372 E0.01777
G1 X136.666 Y101.039 E0.01381
G1 X136.982 Y100.727 E0.01393
G1 X137.550 Y100.271 E0.02283
G1 X138.028 Y99.967 E0.01778
G1 X138.426 Y99.760 E0.01405
G1 X139.104 Y99.493 E0.02284
G1 X139.652 Y99.345 E0.01779
G1 X140.092 Y99.266 E0.01403
G1 X140.815 Y99.211 E0.02275
G1 X141.262 Y99.223 E0.01402
G1 X141.826 Y99.287 E0.01780
G1 X142.537 Y99.450 E0.02285
G1 X142.961 Y99.594 E0.01404
G1 X143.480 Y99.824 E0.01779
G1 X144.110 Y100.189 E0.02284
G1 X144.472 Y100.453 E0.01406
G1 X144.899 Y100.826 E0.01778
G1 X145.392 Y101.362 E0.02283
G1 X145.661 Y101.722 E0.01408
G1 X145.957 Y102.205 E0.01777
G1 X146.269 Y102.862 E0.02281
G1 X146.419 Y103.286 E0.01410
G1 X146.557 Y103.835 E0.01776
G1 X146.661 Y104.555 E0.02280
G1 X146.678 Y105.000 E0.01395
G1 X146.661 Y105.445 E0.01395
G1 X146.557 Y106.165 E0.02280
G1 X146.419 Y106.714 E0.01776
G1 X146.272 Y107.130 E0.01383
G1 X146.093 Y107.537 E0.01394
G1 X145.732 Y108.169 E0.02282
G1 X145.400 Y108.628 E0.01777
G1 X145.111 Y108.961 E0.01381
G1 X144.795 Y109.273 E0.01393
G1 X144.227 Y109.729 E0.02283
G1 X143.749 Y110.033 E0.01778
G1 X143.351 Y110.240 E0.01405
G1 X142.673 Y110.507 E0.02284
G1 X142.126 Y110.655 E0.01779
G1 X141.685 Y110.734 E0.01403
G1 X140.962 Y110.789 E0.02275
G1 X140.515 Y110.777 E0.01402
G1 X139.951 Y110.713 E0.01780
G1 X139.240 Y110.550 E0.02285
G1 X138.816 Y110.406 E0.01404
G1 X138.297 Y110.176 E0.01779
G1 X137.667 Y109.811 E0.02284
G1 X137.305 Y109.547 E0.01406
G1 X136.878 Y109.174 E0.01778
G1 X136.385 Y108.638 E0.02283
G1 X136.116 Y108.278 E0.01408
G1 X135.820 Y107.795 E0.01777
G1 X135.508 Y107.138 E0.02281
G1 X135.358 Y106.714 E0.01410
G1 X135.220 Y106.165 E0.01776
G1 X135.116 Y105.445 E0.02280
G1 X135.099 Y105.000 E0.01395
G1 X135.116 Y104.555 E0.01395
G1 X135.211 Y103.895 E0.02092
G1 X135.584 Y103.949 F10800.000
G1 F1800
G1 X135.720 Y103.395 E0.01787
G1 X135.856 Y103.009 E0.01284
G1 X136.021 Y102.633 E0.01288
G1 X136.362 Y102.036 E0.02157
G1 X136.672 Y101.606 E0.01661
G1 X136.941 Y101.298 E0.01283
G1 X137.233 Y101.009 E0.01287
G1 X137.770 Y100.578 E0.02157
G1 X138.217 Y100.294 E0.01661
G1 X138.582 Y100.104 E0.01292
G1 X139.223 Y99.851 E0.02158
G1 X139.734 Y99.713 E0.01662
G1 X140.139 Y99.640 E0.01291
G1 X140.825 Y99.589 E0.02154
G1 X141.236 Y99.600 E0.01291
G1 X141.763 Y99.660 E0.01662
G1 X142.434 Y99.813 E0.02158
G1 X142.824 Y99.946 E0.01291
G1 X143.308 Y100.160 E0.01662
G1 X143.903 Y100.505 E0.02158
G1 X144.237 Y100.748 E0.01292
G1 X144.635 Y101.097 E0.01661
G1 X145.102 Y101.603 E0.02157
G1 X145.348 Y101.933 E0.01293
G1 X145.625 Y102.385 E0.01661
G1 X145.920 Y103.006 E0.02157
G1 X146.057 Y103.395 E0.01293
G1 X146.187 Y103.909 E0.01660
G1 X146.285 Y104.589 E0.02156
G1 X146.301 Y105.000 E0.01288
G1 X146.285 Y105.411 E0.01288
G1 X146.187 Y106.091 E0.02156
G1 X146.057 Y106.605 E0.01660
G1 X145.921 Y106.991 E0.01284
G1 X145.756 Y107.367 E0.01288
G1 X145.415 Y107.964 E0.02157
G1 X145.105 Y108.394 E0.01661
G1 X144.836 Y108.702 E0.01283
G1 X144.544 Y108.991 E0.01288
G1 X144.007 Y109.422 E0.02158
G1 X143.560 Y109.706 E0.01661
G1 X143.195 Y109.896 E0.01292
G1 X142.554 Y110.148 E0.02158
G1 X142.043 Y110.287 E0.01662
G1 X141.638 Y110.360 E0.01291
G1 X140.952 Y110.411 E0.02154
G1 X140.541 Y110.400 E0.01290
G1 X140.014 Y110.340 E0.01662
G1 X139.343 Y110.187 E0.02158
G1 X138.953 Y110.054 E0.01291
G1 X138.469 Y109.840 E0.01662
G1 X137.874 Y109.495 E0.02158
G1 X137.540 Y109.252 E0.01292
G1 X137.142 Y108.903 E0.01661
G1 X136.675 Y108.397 E0.02157
G1 X136.429 Y108.067 E0.01293
G1 X136.152 Y107.615 E0.01661
G1 X135.857 Y106.994 E0.02157
G1 X135.720 Y106.605 E0.01293
G1 X135.590 Y106.091 E0.01660
G1 X135.492 Y105.411 E0.02156
G1 X135.476 Y105.000 E0.01288
G1 X135.492 Y104.589 E0.01288
G1 X135.576 Y104.008 E0.01841
G1 X135.283 Y103.686 F10800.000
G1 F8640
G1 X135.720 Y103.395 E-0.14537
G1 X135.856 Y103.009 E-0.09453
G1 X136.021 Y102.633 E-0.09484
G1 X136.362 Y102.036 E-0.15885
G1 X136.672 Y101.606 E-0.12232
G1 X136.941 Y101.298 E-0.09450
G1 X137.094 Y101.147 E-0.04959
G1 E-0.04000 F2100.00000
G1 Z0.800 F10800.000
G1 X130.839 Y98.069
G1 Z0.200
G1 E0.80000 F2100.00000
G1 F1800
G1 X147.438 Y98.069 E0.52044
G1 X147.438 Y111.931 E0.43462
G1 X130.839 Y111.931 E0.52044
G1 X130.839 Y112.393 E0.01450
G1 X130.710 Y112.435 E0.00427
G1 X119.371 Y112.435 E0.35551
G1 X119.371 Y101.478 E0.34357
G1 X117.759 Y100.954 E0.05315
G1 X107.367 Y100.954 E0.32584
G1 X106.388 Y102.301 E0.05222
G1 X106.388 Y112.435 E0.31775
G1 X103.102 Y112.435 E0.10303
G1 X103.004 Y112.301 E0.00520
G1 X103.004 Y97.683 E0.45835
G1 X103.102 Y97.549 E0.00520
G1 X130.710 Y97.549 E0.86563
G1 X130.839 Y97.591 E0.00427
G1 X130.839 Y98.009 E0.01312
G1 X131.216 Y97.692 F10800.000
G1 F1800
G1 X147.815 Y97.692 E0.52044
G1 X147.815 Y112.308 E0.45827
G1 X131.216 Y112.308 E0.52044
G1 X131.216 Y112.667 E0.01127
G1 X130.769 Y112.812 E0.01473
G1 X118.994 Y112.812 E0.36921
G1 X118.994 Y101.752 E0.34680
G1 X117.699 Y101.331 E0.04268
G1 X107.559 Y101.331 E0.31794
G1 X106.765 Y102.424 E0.04235
G1 X106.765 Y112.812 E0.32573
G1 X102.910 Y112.812 E0.12088
G1 X102.627 Y112.424 E0.01506
G1 X102.627 Y97.560 E0.46604
G1 X102.910 Y97.172 E0.01506
G1 X130.769 Y97.172 E0.87352
G1 X131.216 Y97.317 E0.01473
G1 X131.216 Y97.632 E0.00989
G1 X131.310 Y98.081 F10800.000
G1 F8640
G1 X134.508 Y97.644 E-0.76000
G1 E-0.04000 F2100.00000
G1 Z0.800 F10800.000
G1 X144.212 Y100.124
G1 Z0.200
G1 E0.80000 F2100.00000
G1 F1800
G1 X142.440 Y98.352 E0.07897
G1 X141.904 Y98.352 E0.01689
G1 X142.790 Y99.238 E0.03947
G1 X142.614 Y99.178 E0.00585
G1 X142.069 Y99.053 E0.01761
G1 X141.368 Y98.352 E0.03124
G1 X140.832 Y98.352 E0.01689
G1 X141.439 Y98.959 E0.02703
G1 X140.874 Y98.930 E0.01781
G1 X140.296 Y98.352 E0.02576
G1 X139.760 Y98.352 E0.01689
G1 X140.370 Y98.961 E0.02716
G1 X139.887 Y99.015 E0.01529
G1 X139.224 Y98.352 E0.02955
G1 X138.688 Y98.352 E0.01689
G1 X139.444 Y99.108 E0.03368
G1 X139.022 Y99.222 E0.01377
G1 X138.152 Y98.352 E0.03878
G1 X137.616 Y98.352 E0.01689
G1 X138.637 Y99.373 E0.04550
G1 X138.258 Y99.529 E0.01294
G1 X137.080 Y98.352 E0.05246
G1 X136.544 Y98.352 E0.01689
G1 X137.905 Y99.712 E0.06062
G1 X137.576 Y99.919 E0.01225
G1 X136.008 Y98.352 E0.06986
G1 X135.472 Y98.352 E0.01689
G1 X137.261 Y100.141 E0.07971
G1 X136.964 Y100.379 E0.01202
G1 X134.936 Y98.352 E0.09034
G1 X134.400 Y98.352 E0.01689
G1 X136.678 Y100.630 E0.10151
G1 X136.412 Y100.900 E0.01194
G1 X133.864 Y98.352 E0.11355
G1 X133.328 Y98.352 E0.01689
G1 X136.163 Y101.187 E0.12633
G1 X135.938 Y101.497 E0.01209
G1 X132.793 Y98.352 E0.14017
G1 X132.257 Y98.352 E0.01689
G1 X135.725 Y101.821 E0.15460
G1 X135.530 Y102.162 E0.01238
G1 X131.721 Y98.352 E0.16980
G1 X131.185 Y98.352 E0.01689
G1 X135.351 Y102.518 E0.18568
G1 X135.195 Y102.899 E0.01295
G1 X130.128 Y97.831 E0.22583
G1 X129.592 Y97.831 E0.01689
G1 X135.063 Y103.302 E0.24381
G1 X134.955 Y103.730 E0.01391
G1 X129.056 Y97.831 E0.26289
G1 X128.520 Y97.831 E0.01689
G1 X134.882 Y104.194 E0.28354
G1 X134.828 Y104.675 E0.01528
G1 X127.984 Y97.831 E0.30502
G1 X127.448 Y97.831 E0.01689
G1 X134.824 Y105.207 E0.32871
G1 X134.834 Y105.470 E0.00830
G1 X134.881 Y105.801 E0.01052
G1 X126.912 Y97.831 E0.35517
G1 X126.376 Y97.831 E0.01689
G1 X135.002 Y106.457 E0.38443
G1 X135.087 Y106.796 E0.01100
G1 X135.241 Y107.233 E0.01460
G1 X125.840 Y97.831 E0.41899
G1 X125.304 Y97.831 E0.01689
G1 X139.121 Y111.648 E0.61577
G1 X138.585 Y111.648 E0.01689
G1 X124.768 Y97.831 E0.61577
G1 X124.232 Y97.831 E0.01689
G1 X138.049 Y111.648 E0.61577
G1 X137.513 Y111.648 E0.01689
G1 X123.696 Y97.831 E0.61577
G1 X123.160 Y97.831 E0.01689
G1 X136.977 Y111.648 E0.61577
G1 X136.441 Y111.648 E0.01689
G1 X122.624 Y97.831 E0.61577
G1 X122.088 Y97.831 E0.01689
G1 X135.905 Y111.648 E0.61577
G1 X135.369 Y111.648 E0.01689
G1 X121.552 Y97.831 E0.61577
G1 X121.016 Y97.831 E0.01689
G1 X134.833 Y111.648 E0.61577
G1 X134.297 Y111.648 E0.01689
G1 X120.480 Y97.831 E0.61577
G1 X119.944 Y97.831 E0.01689
G1 X133.761 Y111.648 E0.61577
G1 X133.225 Y111.648 E0.01689
G1 X119.408 Y97.831 E0.61577
G1 X118.872 Y97.831 E0.01689
G1 X132.689 Y111.648 E0.61577
G1 X132.153 Y111.648 E0.01689
G1 X118.336 Y97.831 E0.61577
G1 X117.800 Y97.831 E0.01689
G1 X131.617 Y111.648 E0.61577
G1 X131.081 Y111.648 E0.01689
G1 X117.264 Y97.831 E0.61577
G1 X116.728 Y97.831 E0.01689
G1 X130.556 Y111.659 E0.61628
G1 X130.556 Y112.153 E0.01554
G1 X130.513 Y112.153 E0.00135
G1 X116.192 Y97.831 E0.63826
G1 X115.656 Y97.831 E0.01689
G1 X118.829 Y101.004 E0.14141
G1 X118.035 Y100.746 E0.02631
G1 X115.120 Y97.831 E0.12991
G1 X114.584 Y97.831 E0.01689
G1 X117.424 Y100.671 E0.12656
G1 X116.888 Y100.671 E0.01689
G1 X114.048 Y97.831 E0.12656
G1 X113.512 Y97.831 E0.01689
G1 X116.352 Y100.671 E0.12656
G1 X115.816 Y100.671 E0.01689
G1 X112.976 Y97.831 E0.12656
G1 X112.440 Y97.831 E0.01689
G1 X115.280 Y100.671 E0.12656
G1 X114.744 Y100.671 E0.01689
G1 X111.904 Y97.831 E0.12656
G1 X111.368 Y97.831 E0.01689
G1 X114.208 Y100.671 E0.12656
G1 X113.672 Y100.671 E0.01689
G1 X110.832 Y97.831 E0.12656
G1 X110.296 Y97.831 E0.01689
G1 X113.136 Y100.671 E0.12656
G1 X112.600 Y100.671 E0.01689
G1 X109.760 Y97.831 E0.12656
G1 X109.224 Y97.831 E0.01689
G1 X112.064 Y100.671 E0.12656
G1 X111.528 Y100.671 E0.01689
G1 X108.689 Y97.831 E0.12656
G1 X108.153 Y97.831 E0.01689
G1 X110.992 Y100.671 E0.12656
G1 X110.456 Y100.671 E0.01689
G1 X107.617 Y97.831 E0.12656
G1 X107.081 Y97.831 E0.01689
G1 X109.920 Y100.671 E0.12656
G1 X109.384 Y100.671 E0.01689
G1 X106.545 Y97.831 E0.12656
G1 X106.009 Y97.831 E0.01689
G1 X108.848 Y100.671 E0.12656
G1 X108.312 Y100.671 E0.01689
G1 X105.473 Y97.831 E0.12656
G1 X104.937 Y97.831 E0.01689
G1 X107.776 Y100.671 E0.12656
G1 X107.240 Y100.671 E0.01689
G1 X104.401 Y97.831 E0.12656
G1 X103.865 Y97.831 E0.01689
G1 X107.005 Y100.971 E0.13994
G1 X106.779 Y101.282 E0.01209
G1 X103.329 Y97.831 E0.15378
G1 X103.287 Y97.831 E0.00131
G1 X103.287 Y98.326 E0.01558
G1 X106.553 Y101.592 E0.14557
G1 X106.328 Y101.903 E0.01209
G1 X103.287 Y98.862 E0.13552
G1 X103.287 Y99.398 E0.01689
G1 X106.105 Y102.216 E0.12559
G1 X106.105 Y102.752 E0.01689
G1 X103.287 Y99.934 E0.12559
G1 X103.287 Y100.470 E0.01689
G1 X106.105 Y103.288 E0.12559
G1 X106.105 Y103.824 E0.01689
G1 X103.287 Y101.006 E0.12559
G1 X103.287 Y101.542 E0.01689
G1 X106.105 Y104.360 E0.12559
G1 X106.105 Y104.896 E0.01689
G1 X103.287 Y102.078 E0.12559
G1 X103.287 Y102.614 E0.01689
G1 X106.105 Y105.432 E0.12559
G1 X106.105 Y105.968 E0.01689
G1 X103.287 Y103.150 E0.12559
G1 X103.287 Y103.686 E0.01689
G1 X106.105 Y106.504 E0.12559
G1 X106.105 Y107.040 E0.01689
G1 X103.287 Y104.222 E0.12559
G1 X103.287 Y104.758 E0.01689
G1 X106.105 Y107.576 E0.12559
G1 X106.105 Y108.112 E0.01689
G1 X103.287 Y105.294 E0.12559
G1 X103.287 Y105.830 E0.01689
G1 X106.105 Y108.648 E0.12559
G1 X106.105 Y109.184 E0.01689
G1 X103.287 Y106.366 E0.12559
G1 X103.287 Y106.902 E0.01689
G1 X106.105 Y109.720 E0.12559
G1 X106.105 Y110.256 E0.01689
G1 X103.287 Y107.438 E0.12559
G1 X103.287 Y107.974 E0.01689
G1 X106.105 Y110.792 E0.12559
G1 X106.105 Y111.328 E0.01689
G1 X103.287 Y108.510 E0.12559
G1 X103.287 Y109.046 E0.01689
G1 X106.105 Y111.864 E0.12559
G1 X106.105 Y112.153 E0.00910
G1 X105.858 Y112.153 E0.00779
G1 X103.287 Y109.582 E0.11458
G1 X103.287 Y110.118 E0.01689
G1 X105.322 Y112.153 E0.09069
G1 X104.786 Y112.153 E0.01689
G1 X103.287 Y110.654 E0.06680
G1 X103.287 Y111.190 E0.01689
G1 X104.250 Y112.153 E0.04292
G1 X103.714 Y112.153 E0.01689
G1 X103.117 Y111.556 E0.02659
G1 F8640
G1 X103.714 Y112.153 E-0.19484
G1 X104.250 Y112.153 E-0.12376
G1 X103.287 Y111.190 E-0.31445
G1 X103.287 Y110.654 E-0.12376
G1 X103.297 Y110.663 E-0.00319
G1 E-0.04000 F2100.00000
G1 Z0.800 F10800.000
G1 X119.963 Y112.322
G1 Z0.200
G1 E0.80000 F2100.00000
G1 F1800
G1 X119.654 Y112.013 E0.01380
G1 X119.654 Y111.477 E0.01689
G1 X120.330 Y112.153 E0.03012
G1 X120.866 Y112.153 E0.01689
G1 X119.654 Y110.941 E0.05401
G1 X119.654 Y110.405 E0.01689
G1 X121.402 Y112.153 E0.07790
G1 X121.938 Y112.153 E0.01689
G1 X119.654 Y109.869 E0.10178
G1 X119.654 Y109.333 E0.01689
G1 X122.474 Y112.153 E0.12567
G1 X123.010 Y112.153 E0.01689
G1 X119.654 Y108.797 E0.14956
G1 X119.654 Y108.261 E0.01689
G1 X123.546 Y112.153 E0.17345
G1 X124.082 Y112.153 E0.01689
G1 X119.654 Y107.725 E0.19733
G1 X119.654 Y107.189 E0.01689
G1 X124.618 Y112.153 E0.22122
G1 X125.154 Y112.153 E0.01689
G1 X119.654 Y106.653 E0.24511
G1 X119.654 Y106.117 E0.01689
G1 X125.690 Y112.153 E0.26900
G1 X126.226 Y112.153 E0.01689
G1 X119.654 Y105.581 E0.29288
G1 X119.654 Y105.045 E0.01689
G1 X126.762 Y112.153 E0.31677
G1 X127.298 Y112.153 E0.01689
G1 X119.654 Y104.509 E0.34066
G1 X119.654 Y103.973 E0.01689
G1 X127.834 Y112.153 E0.36455
G1 X128.370 Y112.153 E0.01689
G1 X119.654 Y103.437 E0.38843
G1 X119.654 Y102.901 E0.01689
G1 X128.905 Y112.153 E0.41232
G1 X129.441 Y112.153 E0.01689
G1 X119.654 Y102.365 E0.43621
G1 X119.654 Y101.829 E0.01689
G1 X130.147 Y112.322 E0.46766
G1 F8640
G1 X127.820 Y109.995 E-0.76000
G1 E-0.04000 F2100.00000
G1 Z0.800 F10800.000
G1 X138.318 Y110.309
G1 Z0.200
G1 E0.80000 F2100.00000
G1 F1800
G1 X139.657 Y111.648 E0.05967
G1 X140.193 Y111.648 E0.01689
G1 X139.428 Y110.883 E0.03410
G1 X139.903 Y110.992 E0.01537
G1 X140.094 Y111.014 E0.00607
G1 X140.729 Y111.648 E0.02827
G1 X141.265 Y111.648 E0.01689
G1 X140.681 Y111.064 E0.02602
G1 X140.969 Y111.072 E0.00907
G1 X141.206 Y111.054 E0.00752
G1 X141.801 Y111.648 E0.02648
G1 X142.337 Y111.648 E0.01689
G1 X141.705 Y111.016 E0.02815
G1 X142.161 Y110.936 E0.01459
G1 X142.873 Y111.648 E0.03171
G1 X143.409 Y111.648 E0.01689
G1 X142.585 Y110.824 E0.03672
G1 X142.985 Y110.688 E0.01332
G1 X143.945 Y111.648 E0.04278
